packages/blockchain-info-components/src/Images/img/email-verified.svg

<svg fill="none" height="56" viewBox="0 0 97 56" width="97" xmlns="http://www.w3.org/2000/svg"><circle cx="49" cy="36" fill="#0c6cf2" r="20"/><path d="m56.5 28h-16c-1.1 0-1.99.9-1.99 2l-.01 12c0 1.1.9 2 2 2h16c1.1 0 2-.9 2-2v-12c0-1.1-.9-2-2-2zm0 4-8 5-8-5v-2l8 5 8-5z" fill="#fff"/><circle cx="69" cy="16" fill="#fff" r="16"/><path d="m69 4.33331c-6.44 0-11.6667 5.22667-11.6667 11.66669 0 6.44 5.2267 11.6666 11.6667 11.6666s11.6666-5.2266 11.6666-11.6666c0-6.44002-5.2266-11.66669-11.6666-11.66669zm-2.3334 17.49999-5.8333-5.8333 1.645-1.645 4.1883 4.1766 8.855-8.85495 1.645 1.65665z" fill="#00994c"/></svg>

<svg width="97" height="56" viewBox="0 0 97 56" fill="none" xmlns="http://www.w3.org/2000/svg">
<circle cx="49" cy="36" r="20" fill="#0C6CF2"/>
<path d="M56.5 28H40.5C39.4 28 38.51 28.9 38.51 30L38.5 42C38.5 43.1 39.4 44 40.5 44H56.5C57.6 44 58.5 43.1 58.5 42V30C58.5 28.9 57.6 28 56.5 28ZM56.5 32L48.5 37L40.5 32V30L48.5 35L56.5 30V32Z" fill="white"/>
<circle cx="69" cy="16" r="16" fill="white"/>
<path d="M69 4.33331C62.56 4.33331 57.3333 9.55998 57.3333 16C57.3333 22.44 62.56 27.6666 69 27.6666C75.44 27.6666 80.6666 22.44 80.6666 16C80.6666 9.55998 75.44 4.33331 69 4.33331ZM66.6666 21.8333L60.8333 16L62.4783 14.355L66.6666 18.5316L75.5216 9.67665L77.1666 11.3333L66.6666 21.8333Z" fill="#00994C"/>
</svg>
